kiosk-igrinskij/images/eb681b2973758915e21f0a7b0a2ef255.svg

<svg fill="none" height="18" viewBox="0 0 18 18" width="18" xmlns="http://www.w3.org/2000/svg"><path d="m15.8974 3.16687-1.0643-1.06444c-1.4375-1.219374-3.1992-1.948424-5.08034-2.10243h-1.50552c-1.88115.154006-3.64304.883056-5.08037 2.10243l-1.06444 1.06444c-1.219374 1.43733-1.948424 3.19922-2.10243 5.08037v1.50552c.154006 1.88114.883056 3.64284 2.10243 5.08034l1.06444 1.0643c1.43733 1.2195 3.19922 1.9486 5.08037 2.1026h1.50552c1.88114-.154 3.64284-.8831 5.08034-2.1026l1.0643-1.0643c1.2195-1.4375 1.9486-3.1992 2.1026-5.08034v-1.50552c-.154-1.88115-.8831-3.64304-2.1026-5.08037zm-6.14464-1.65768c1.47904.14574 2.86524.71931 4.01294 1.66062l-2.6896 2.6896c-.4032-.26685-.851-.45191-1.32334-.54766zm-1.50552 0v3.80256c-.47157.09575-.91944.28081-1.32302.54803l-2.68996-2.68997c1.14751-.94131 2.53375-1.51488 4.01298-1.66062zm-5.07743 2.72507 2.6896 2.68959c-.26685.40303-.45191.85108-.54766 1.32339h-3.80256c.14574-1.47923.71931-2.86547 1.66062-4.01298zm-1.66062 5.5185h3.80256c.09575.47154.28081.91944.54803 1.32284l-2.68997 2.6901c-.94131-1.1477-1.51488-2.5339-1.66062-4.01294zm6.73805 6.73784c-1.47923-.1457-2.86547-.7193-4.01298-1.6606l2.68959-2.6896c.40303.2669.85108.4521 1.32339.5477zm.75276-5.2323c-.60187 0-1.16975-.2353-1.59593-.6583-.4271-.4303-.66234-.99813-.66234-1.6s.23524-1.16975.65829-1.59593c.43023-.4271.99811-.66234 1.59998-.66234s1.1697.23524 1.5957.65829c.4273.43023.6626.99811.6626 1.59998s-.2353 1.1697-.6583 1.5957c-.4303.4273-.99813.6626-1.6.6626zm.75276 5.2323v-3.8025c.47154-.0956.91944-.2808 1.32284-.5481l2.6901 2.69c-1.1477.9413-2.5339 1.5149-4.01294 1.6606zm5.07724-2.7249-2.6896-2.6896c.2669-.4032.4521-.851.5477-1.32334h3.8025c-.1457 1.47904-.7193 2.86524-1.6606 4.01294zm-2.1419-5.51846c-.0956-.47157-.2808-.91944-.5481-1.32302l2.69-2.68996c.9413 1.14751 1.5149 2.53375 1.6606 4.01298z" fill="#f1e9dd"/></svg>

<svg width="18" height="18" viewBox="0 0 18 18" fill="none" xmlns="http://www.w3.org/2000/svg">
<path d="M15.8974 3.16687L14.8331 2.10243C13.3956 0.883056 11.6339 0.154006 9.75276 0H8.24724C6.36609 0.154006 4.6042 0.883056 3.16687 2.10243L2.10243 3.16687C0.883056 4.6042 0.154006 6.36609 0 8.24724V9.75276C0.154006 11.6339 0.883056 13.3956 2.10243 14.8331L3.16687 15.8974C4.6042 17.1169 6.36609 17.846 8.24724 18H9.75276C11.6339 17.846 13.3956 17.1169 14.8331 15.8974L15.8974 14.8331C17.1169 13.3956 17.846 11.6339 18 9.75276V8.24724C17.846 6.36609 17.1169 4.6042 15.8974 3.16687ZM9.75276 1.50919C11.2318 1.65493 12.618 2.2285 13.7657 3.16981L11.0761 5.85941C10.6729 5.59256 10.2251 5.4075 9.75276 5.31175V1.50919ZM8.24724 1.50919V5.31175C7.77567 5.4075 7.3278 5.59256 6.92422 5.85978L4.23426 3.16981C5.38177 2.2285 6.76801 1.65493 8.24724 1.50919ZM3.16981 4.23426L5.85941 6.92385C5.59256 7.32688 5.4075 7.77493 5.31175 8.24724H1.50919C1.65493 6.76801 2.2285 5.38177 3.16981 4.23426ZM1.50919 9.75276H5.31175C5.4075 10.2243 5.59256 10.6722 5.85978 11.0756L3.16981 13.7657C2.2285 12.618 1.65493 11.2318 1.50919 9.75276ZM8.24724 16.4906C6.76801 16.3449 5.38177 15.7713 4.23426 14.83L6.92385 12.1404C7.32688 12.4073 7.77493 12.5925 8.24724 12.6881V16.4906ZM9 11.2583C8.39813 11.2583 7.83025 11.023 7.40407 10.6C6.97697 10.1697 6.74173 9.60187 6.74173 9C6.74173 8.39813 6.97697 7.83025 7.40002 7.40407C7.83025 6.97697 8.39813 6.74173 9 6.74173C9.60187 6.74173 10.1697 6.97697 10.5957 7.40002C11.023 7.83025 11.2583 8.39813 11.2583 9C11.2583 9.60187 11.023 10.1697 10.6 10.5957C10.1697 11.023 9.60187 11.2583 9 11.2583ZM9.75276 16.4906V12.6881C10.2243 12.5925 10.6722 12.4073 11.0756 12.14L13.7657 14.83C12.618 15.7713 11.2318 16.3449 9.75276 16.4906ZM14.83 13.7657L12.1404 11.0761C12.4073 10.6729 12.5925 10.2251 12.6881 9.75276H16.4906C16.3449 11.2318 15.7713 12.618 14.83 13.7657ZM12.6881 8.24724C12.5925 7.77567 12.4073 7.3278 12.14 6.92422L14.83 4.23426C15.7713 5.38177 16.3449 6.76801 16.4906 8.24724H12.6881Z" fill="#F1E9DD"/>
</svg>
